!!!PDT:	1923
!!!LANG: Non-Tone
!!!LING_GROUP: Siouan
!!!REG: Dakotas
!!!COM: Anon.
!!!OTL: Song of the Coyote (b)
!!!ODT: <1918//
!!!MPN: Wopite [Scattered Corn, Mrs. Holding Eagle]
!!!MLC: Fort Berthold Reservation, North Dakota, United States of America
!! Song was recorded during either the summer of 1912, 1915, or 1918.
!!!AGN: monody
!!!SOCIAL_FUNCTION: Ceremony of the Little River Women Society
!!!AMT: irregular
!!!RWG: Transcribed pitches, durations, and meters are only approximate.
!! Drum Tempo: MM104
!! Drum-rhythm: (4 4 4 4)
**kern
*ICvox
*Ifemale
*clefG2
*k[f#c#g#]
*M3/4
*MM104
{8cc#
=1
4cc#
4a
16a
8f#
16a
*M2/4
=2
4a
4f#
=3
4f#
4f#}
*M3/4
=4
{16a
8.f#
4a
16a
8f#
16a
*M2/4
=5
4a
4f#
=6
4f#
4f#}
*M3/4
=7
{16a
8.f#
16a
8.f#
8f#
8c#
*M2/4
=8
8f#
8f#
8c#
8c#}
*M3/4
=9
{16d
8.c#
8c#
8d
8c#
8d
=10
8c#
8c#
4.c#}
==
*-
!!!CNT: Mandan
!!!TXO: Mandan
!!!OCY: United States
!!!OCL: Frances Densmore
!!!YOR: Frances Densmore, "Mandan and Hidatsa Music",
!!!YOR: Bulletin 80, page 106, No. 43
!!!PPR: Smithsonian Institution, Bureau of American Ethnology
!!!PPR: Government Printing Office
!!!PDT: 1923
!!!PPP: Washington, DC, United States of America
!!!YEC: Electronic Copyright 2000 David Huron
!!!YER: August 2000
!!!YEN: United States of America
!!!ENC: David Huron
!!!RDT: August 16, 2000
!!!EEV: Release 1.0
!!!AIN: tom, vox
